X: 30353
T: Old Pier Road
R: jig
M: 6/8
K: Amajor
|:~E3 ~e3|Bcd c2A|f2d a2d|f2d Bcd|
~e3 edc|Bdc Bcd|~e3 aec|1 Bdc A3:|2 Bdc A2 [K:D]g||
|:f2d A2d|B2d A2d|ABd faf|g2f eag|
f2d A2d|B2d g3|f/g/af gec|1 edc dAg:|2 edc d3||

